apps/mainsite/static/images/participation.svg

<?xml version="1.0" encoding="UTF-8"?>
<svg width="400" height="400" fill="none" version="1.1" viewBox="0 0 400 400" xmlns="http://www.w3.org/2000/svg">
 <g transform="matrix(1.0091 0 0 1.0091 -.25476 -.13142)">
  <path d="m349.42 83.265-126.8-73.208c-14.956-8.6348-33.383-8.6348-48.339 0l-126.8 73.208c-14.956 8.6348-24.169 24.592-24.169 41.862v146.42c0 17.269 9.2132 33.227 24.169 41.862l126.8 73.208c14.956 8.634 33.383 8.634 48.339 0l126.8-73.208c14.956-8.635 24.169-24.592 24.169-41.862v-146.42c0-17.27-9.213-33.228-24.169-41.862z" fill="#fff" stroke="#492e98" stroke-width="6.9055"/>
  <path d="m26.796 243.32v28.689c0 15.497 8.2676 29.817 21.688 37.565l128.33 74.09c13.421 7.749 29.956 7.749 43.377 0l128.33-74.09c13.421-7.748 21.688-22.068 21.688-37.565v-28.689z" clip-rule="evenodd" fill="#ecfeed" fill-rule="evenodd"/>
  <path d="m35.919 119.56c-0.1805 1.409-0.2729 2.839-0.2729 4.282v5.196h4.6036v-5.196c0-1.246 0.0798-2.481 0.2357-3.697zm-0.2729 148.39h4.6036v5.195c0 1.247 0.0798 2.482 0.2357 3.698l-4.5664 0.585c-0.1805-1.41-0.2729-2.839-0.2729-4.283zm2.6058 18.183 4.247-1.776c0.9549 2.282 2.1977 4.435 3.6973 6.403l-3.6621 2.79c-1.7368-2.28-3.1762-4.773-4.2822-7.417zm10.655 13.79 2.7898-3.662c0.9756 0.743 2.0048 1.43 3.0844 2.053l4.4993 2.598-2.3018 3.987-4.4994-2.598c-1.2497-0.722-2.4419-1.517-3.5723-2.378zm17.544 10.444 2.3018-3.986 8.9987 5.195-2.3018 3.987zm18.471 10.665 2.3018-3.987 8.9988 5.195-2.3019 3.987zm18.471 10.664 2.302-3.987 8.999 5.196-2.302 3.986zm18.471 10.664 2.302-3.987 8.999 5.196-2.302 3.987zm18.472 10.665 2.301-3.987 8.999 5.195-2.302 3.987zm18.471 10.664 2.301-3.987 8.999 5.195-2.302 3.987zm18.471 10.664 2.302-3.987 4.499 2.598c1.079 0.623 2.189 1.172 3.32 1.645l-1.777 4.247c-1.311-0.549-2.595-1.183-3.845-1.905zm17.05 6.835 0.585-4.566c2.454 0.314 4.94 0.314 7.394 0l0.585 4.566c-2.843 0.364-5.721 0.364-8.564 0zm17.27-2.332-1.777-4.247c1.131-0.473 2.24-1.022 3.32-1.645l4.499-2.598 2.302 3.987-4.499 2.598c-1.25 0.722-2.534 1.356-3.845 1.905zm17.817-9.972-2.302-3.987 8.998-5.195 2.302 3.987zm18.471-10.664-2.302-3.987 8.999-5.195 2.301 3.987zm18.471-10.664-2.302-3.987 8.999-5.196 2.302 3.987zm18.471-10.665-2.302-3.986 8.999-5.196 2.302 3.987zm18.471-10.664-2.302-3.987 8.999-5.195 2.302 3.987zm18.471-10.664-2.302-3.987 8.999-5.195 2.302 3.986zm18.471-10.664-2.302-3.987 4.5-2.598c1.079-0.623 2.109-1.31 3.084-2.053l2.79 3.662c-1.131 0.861-2.323 1.656-3.572 2.378zm14.444-11.349-3.662-2.79c1.5-1.968 2.743-4.121 3.698-6.403l4.247 1.776c-1.106 2.644-2.546 5.137-4.283 7.417zm6.888-164.51h-4.603v-5.196c0-1.246-0.08-2.481-0.236-3.697l4.567-0.585c0.18 1.409 0.272 2.839 0.272 4.282zm-2.605-18.183-4.247 1.776c-0.955-2.283-2.198-4.435-3.698-6.404l3.662-2.79c1.737 2.28 3.177 4.773 4.283 7.418zm-10.655-13.79-2.79 3.6624c-0.975-0.7436-2.005-1.4299-3.084-2.0532l-4.5-2.5977 2.302-3.9869 4.5 2.5977c1.249 0.7216 2.441 1.5165 3.572 2.3777zm-17.544-10.444-2.302 3.9869-8.999-5.1954 2.302-3.9869zm-18.471-10.664-2.302 3.9869-8.999-5.1954 2.302-3.9869zm-18.471-10.664-2.302 3.9869-8.999-5.1954 2.302-3.9869zm-18.471-10.664-2.302 3.9869-8.999-5.1954 2.302-3.9869zm-18.472-10.664-2.301 3.9869-8.999-5.1954 2.302-3.9869zm-18.471-10.664-2.302 3.9869-8.998-5.1954 2.302-3.9869zm-18.471-10.664-2.302 3.9869-4.499-2.5977c-1.08-0.6233-2.189-1.1715-3.32-1.6448l1.777-4.247c1.311 0.5484 2.595 1.1834 3.845 1.9049zm-17.05-6.8349-0.585 4.5663c-2.454-0.3144-4.94-0.3144-7.394 0l-0.585-4.5663c2.843-0.3642 5.721-0.3642 8.564 0zm-17.27 2.3323 1.777 4.247c-1.131 0.4733-2.241 1.0215-3.32 1.6448l-4.499 2.5977-2.302-3.9869 4.499-2.5977c1.25-0.7215 2.534-1.3565 3.845-1.9049zm-17.817 9.9715 2.302 3.9869-8.999 5.1954-2.301-3.9869zm-18.471 10.664 2.302 3.9869-8.999 5.1954-2.301-3.9869zm-18.471 10.664 2.302 3.9869-8.999 5.1954-2.302-3.9869zm-18.471 10.664 2.302 3.9869-8.999 5.1954-2.302-3.9869zm-18.471 10.664 2.3018 3.9869-8.9987 5.1954-2.3018-3.9869zm-18.471 10.664 2.3018 3.9869-8.9987 5.1954-2.3018-3.9869zm-18.471 10.664 2.3018 3.9869-4.4993 2.5977c-1.0796 0.6233-2.1088 1.3096-3.0844 2.0532l-2.7898-3.6624c1.1304-0.8612 2.3226-1.6561 3.5723-2.3777zm-14.444 11.348 3.6621 2.79c-1.4996 1.969-2.7424 4.121-3.6973 6.404l-4.247-1.776c1.106-2.645 2.5454-5.138 4.2822-7.418zm319.04 36.538h-4.603v10.391h4.603zm0 21.329h-4.603v10.391h4.603zm0 21.329h-4.603v10.39h4.603zm0 21.328h-4.603v10.391h4.603zm0 21.329h-4.603v10.391h4.603zm0 21.328h-4.603v10.391h4.603zm0 21.329h-4.603v5.195c0 1.247-0.08 2.482-0.236 3.698l4.567 0.585c0.18-1.41 0.272-2.839 0.272-4.283zm-325.93-10.938h4.6036v-10.391h-4.6036zm0-21.328h4.6036v-10.391h-4.6036zm0-21.329h4.6036v-10.391h-4.6036zm0-21.329h4.6036v-10.39h-4.6036zm0-21.328h4.6036v-10.391h-4.6036zm0-21.329h4.6036v-10.391h-4.6036z" clip-rule="evenodd" fill="#492e98" fill-rule="evenodd"/>
 </g>
</svg>

<svg width="397" height="397" viewBox="0 0 397 397" fill="none" xmlns="http://www.w3.org/2000/svg">
<path d="M349.425 83.2646L222.626 10.057C207.67 1.42223 189.243 1.42221 174.287 10.057L47.488 83.2646C32.5321 91.8994 23.3189 107.857 23.3189 125.127V271.542C23.3189 288.811 32.5321 304.769 47.488 313.404L174.287 386.612C189.243 395.246 207.67 395.246 222.626 386.612L349.425 313.404C364.381 304.769 373.594 288.812 373.594 271.542V125.127C373.594 107.857 364.381 91.8994 349.425 83.2646Z" fill="white" stroke="#492E98" stroke-width="6.90547"/>
<path fill-rule="evenodd" clip-rule="evenodd" d="M26.7959 243.318V272.007C26.7959 287.504 35.0635 301.824 48.4843 309.572L176.812 383.662C190.233 391.411 206.768 391.411 220.189 383.662L348.517 309.572C361.938 301.824 370.205 287.504 370.205 272.007V243.318H26.7959Z" fill="#ECFEED"/>
<path fill-rule="evenodd" clip-rule="evenodd" d="M35.9194 119.556C35.7389 120.965 35.6465 122.395 35.6465 123.838V129.034H40.2501V123.838C40.2501 122.592 40.3299 121.357 40.4858 120.141L35.9194 119.556ZM35.6465 267.943H40.2501V273.138C40.2501 274.385 40.3299 275.62 40.4858 276.836L35.9194 277.421C35.7389 276.011 35.6465 274.582 35.6465 273.138V267.943ZM38.2523 286.126L42.4993 284.35C43.4542 286.632 44.697 288.785 46.1966 290.753L42.5345 293.543C40.7977 291.263 39.3583 288.77 38.2523 286.126ZM48.907 299.916L51.6968 296.254C52.6724 296.997 53.7016 297.684 54.7812 298.307L59.2805 300.905L56.9787 304.892L52.4793 302.294C51.2296 301.572 50.0374 300.777 48.907 299.916ZM66.4511 310.36L68.7529 306.374L77.7516 311.569L75.4498 315.556L66.4511 310.36ZM84.9222 321.025L87.224 317.038L96.2228 322.233L93.9209 326.22L84.9222 321.025ZM103.393 331.689L105.695 327.702L114.694 332.898L112.392 336.884L103.393 331.689ZM121.864 342.353L124.166 338.366L133.165 343.562L130.863 347.549L121.864 342.353ZM140.336 353.018L142.637 349.031L151.636 354.226L149.334 358.213L140.336 353.018ZM158.807 363.682L161.108 359.695L170.107 364.89L167.805 368.877L158.807 363.682ZM177.278 374.346L179.58 370.359L184.079 372.957C185.158 373.58 186.268 374.129 187.399 374.602L185.622 378.849C184.311 378.3 183.027 377.666 181.777 376.944L177.278 374.346ZM194.328 381.181L194.913 376.615C197.367 376.929 199.853 376.929 202.307 376.615L202.892 381.181C200.049 381.545 197.171 381.545 194.328 381.181ZM211.598 378.849L209.821 374.602C210.952 374.129 212.061 373.58 213.141 372.957L217.64 370.359L219.942 374.346L215.443 376.944C214.193 377.666 212.909 378.3 211.598 378.849ZM229.415 368.877L227.113 364.89L236.111 359.695L238.413 363.682L229.415 368.877ZM247.886 358.213L245.584 354.226L254.583 349.031L256.884 353.018L247.886 358.213ZM266.357 347.549L264.055 343.562L273.054 338.366L275.356 342.353L266.357 347.549ZM284.828 336.884L282.526 332.898L291.525 327.702L293.827 331.689L284.828 336.884ZM303.299 326.22L300.997 322.233L309.996 317.038L312.298 321.025L303.299 326.22ZM321.77 315.556L319.468 311.569L328.467 306.374L330.769 310.36L321.77 315.556ZM340.241 304.892L337.939 300.905L342.439 298.307C343.518 297.684 344.548 296.997 345.523 296.254L348.313 299.916C347.182 300.777 345.99 301.572 344.741 302.294L340.241 304.892ZM354.685 293.543L351.023 290.753C352.523 288.785 353.766 286.632 354.721 284.35L358.968 286.126C357.862 288.77 356.422 291.263 354.685 293.543ZM361.573 129.034H356.97V123.838C356.97 122.592 356.89 121.357 356.734 120.141L361.301 119.556C361.481 120.965 361.573 122.395 361.573 123.838V129.034ZM358.968 110.851L354.721 112.627C353.766 110.344 352.523 108.192 351.023 106.223L354.685 103.433C356.422 105.713 357.862 108.206 358.968 110.851ZM348.313 97.0606L345.523 100.723C344.548 99.9794 343.518 99.2931 342.439 98.6698L337.939 96.0721L340.241 92.0852L344.741 94.6829C345.99 95.4045 347.182 96.1994 348.313 97.0606ZM330.769 86.6163L328.467 90.6032L319.468 85.4078L321.77 81.4209L330.769 86.6163ZM312.298 75.952L309.996 79.9389L300.997 74.7435L303.299 70.7566L312.298 75.952ZM293.827 65.2877L291.525 69.2746L282.526 64.0792L284.828 60.0923L293.827 65.2877ZM275.356 54.6234L273.054 58.6103L264.055 53.4149L266.357 49.428L275.356 54.6234ZM256.884 43.9591L254.583 47.946L245.584 42.7506L247.886 38.7637L256.884 43.9591ZM238.413 33.2948L236.111 37.2817L227.113 32.0863L229.415 28.0994L238.413 33.2948ZM219.942 22.6305L217.64 26.6174L213.141 24.0197C212.061 23.3964 210.952 22.8482 209.821 22.3749L211.598 18.1279C212.909 18.6763 214.193 19.3113 215.443 20.0328L219.942 22.6305ZM202.892 15.7956L202.307 20.3619C199.853 20.0475 197.367 20.0475 194.913 20.3619L194.328 15.7956C197.171 15.4314 200.049 15.4314 202.892 15.7956ZM185.622 18.1279L187.399 22.3749C186.268 22.8482 185.158 23.3964 184.079 24.0197L179.58 26.6174L177.278 22.6305L181.777 20.0328C183.027 19.3113 184.311 18.6763 185.622 18.1279ZM167.805 28.0994L170.107 32.0863L161.108 37.2817L158.807 33.2948L167.805 28.0994ZM149.334 38.7637L151.636 42.7506L142.637 47.946L140.336 43.9591L149.334 38.7637ZM130.863 49.428L133.165 53.4149L124.166 58.6103L121.864 54.6234L130.863 49.428ZM112.392 60.0923L114.694 64.0792L105.695 69.2746L103.393 65.2877L112.392 60.0923ZM93.9209 70.7566L96.2227 74.7435L87.224 79.9389L84.9222 75.952L93.9209 70.7566ZM75.4498 81.4209L77.7516 85.4078L68.7529 90.6032L66.4511 86.6163L75.4498 81.4209ZM56.9787 92.0852L59.2805 96.0721L54.7812 98.6698C53.7016 99.2931 52.6724 99.9794 51.6968 100.723L48.907 97.0606C50.0374 96.1994 51.2296 95.4045 52.4793 94.6829L56.9787 92.0852ZM42.5345 103.433L46.1966 106.223C44.697 108.192 43.4542 110.344 42.4993 112.627L38.2523 110.851C39.3583 108.206 40.7977 105.713 42.5345 103.433ZM361.573 139.971H356.97V150.362H361.573V139.971ZM361.573 161.3H356.97V171.691H361.573V161.3ZM361.573 182.629H356.97V193.019H361.573V182.629ZM361.573 203.957H356.97V214.348H361.573V203.957ZM361.573 225.286H356.97V235.677H361.573V225.286ZM361.573 246.614H356.97V257.005H361.573V246.614ZM361.573 267.943H356.97V273.138C356.97 274.385 356.89 275.62 356.734 276.836L361.301 277.421C361.481 276.011 361.573 274.582 361.573 273.138V267.943ZM35.6465 257.005H40.2501V246.614H35.6465V257.005ZM35.6465 235.677H40.2501V225.286H35.6465V235.677ZM35.6465 214.348H40.2501V203.957H35.6465V214.348ZM35.6465 193.019H40.2501V182.629H35.6465V193.019ZM35.6465 171.691H40.2501V161.3H35.6465V171.691ZM35.6465 150.362H40.2501V139.971H35.6465V150.362Z" fill="#492E98"/>
</svg>
